Point/img/viber.svg

<svg width="82" height="88" viewBox="0 0 82 88" fill="none" xmlns="http://www.w3.org/2000/svg">
<path fill-rule="evenodd" clip-rule="evenodd" d="M48.5188 2.61635C38.6788 1.63801 20.2508 -1.2603 12.0527 4.10565C3.78154 9.51939 2.23484 19.9246 0.64016 29.4755C-0.79187 38.0523 3.26186 46.049 5.49314 54.4639C7.91713 63.6054 2.88726 75.389 9.92329 81.9127C17.2653 88.7202 35.3242 88.3156 45.3779 86.8999C54.8632 85.5643 57.92 78.8098 65.7829 73.4959C73.8717 68.0294 76.4175 74.9763 79.3444 65.8479C82.2735 56.7128 83.3355 39.9491 79.3444 31.2002C75.8592 23.5601 74.227 14.8905 67.579 9.57547C60.7061 4.08049 57.3809 3.49746 48.5188 2.61635Z" fill="#C5CBF1"/>
<path d="M16.6176 40.5243C16.6176 42.1161 16.6176 43.708 16.6176 45.2998C16.6176 45.9548 16.9526 46.6261 17.1202 47.2547C17.4951 48.6606 17.43 50.2176 17.6509 51.6533C17.8084 52.677 18.1399 53.7231 18.2513 54.7253C18.2839 55.019 18.5673 55.4198 18.6842 55.7027C18.8864 56.1924 19.0719 56.7688 19.3265 57.2318C19.6199 57.7652 19.9105 58.5891 20.4436 58.9283C20.919 59.2309 21.4213 59.6659 21.826 60.0594C22.3316 60.551 23.0916 61.5262 23.7809 61.756C24.8378 62.1083 25.9593 62.1556 26.9925 62.6427C27.592 62.9253 28.6653 63.0731 29.0592 63.6201C29.863 64.7366 29.479 65.9811 29.4362 67.2646C29.3996 68.3605 29.4362 69.4635 29.4362 70.5601C29.4362 71.3976 29.5675 72.3624 29.4292 73.1922C29.4111 73.3007 29.0592 74.1244 29.0592 73.7996C29.0592 73.0698 30.2559 72.5191 30.6999 72.0751C30.9475 71.8275 31.3091 71.6744 31.5028 71.37C31.7059 71.0508 31.686 70.6802 31.9496 70.3366C32.3359 69.8333 32.717 69.5167 33.1365 69.059C33.5203 68.6403 34.1024 68.1479 34.5608 67.7953C34.8164 67.5987 35.6668 66.8391 35.7198 66.5385C35.7241 66.5141 36.2445 65.9375 36.2923 65.9102C36.5645 65.7547 36.9352 65.3805 37.172 65.1561C37.6191 64.7326 38.4722 64.8628 39.0641 64.7093C40.0136 64.4631 40.9252 64.6008 41.8848 64.5208C44.0957 64.3365 46.2565 63.8994 48.4756 63.8994C49.919 63.8994 51.2222 63.4972 52.6298 63.299C53.6466 63.1558 54.7902 62.8286 55.7437 62.4472C56.8188 62.0171 57.8713 61.557 58.8995 61.0159C59.7901 60.5472 60.2734 59.7492 60.6728 58.8446C61.4053 57.1858 61.9491 55.4151 62.7465 53.7897C62.8161 53.6478 63.6161 51.8649 63.7728 52.7704C63.9789 53.9614 63.8203 54.8817 63.4377 55.975C63.3186 56.3151 63.1985 56.7087 63.1165 57.0572C63.0202 57.4666 62.7585 57.2395 62.5579 57.518C62.4352 57.6885 62.2437 57.8299 62.139 57.9928C61.6026 58.8272 63.052 56.2296 63.4446 55.3187C63.9035 54.2541 64.4241 53.2298 64.7502 52.1141C65.0129 51.2155 65.183 50.296 65.4973 49.4121C65.836 48.4595 65.8638 47.4992 65.8813 46.5007C65.9014 45.3569 66.1236 44.1644 66.2653 43.0307C66.5402 40.8313 66.3426 38.627 65.7835 36.5027C65.5949 35.786 64.97 35.0443 64.8829 34.3035C64.7953 33.5588 64.4496 32.7711 64.1777 32.0763C63.2642 29.7416 62.9251 27.2876 60.98 25.4505C59.3398 23.9014 56.92 23.7932 54.8919 23.0558C54.4789 22.9056 54.1708 22.6108 53.7608 22.4274C52.8913 22.0384 51.975 21.901 51.0519 21.7362C49.8408 21.5199 48.5796 21.5726 47.3655 21.3243C46.5126 21.1498 45.5116 20.9193 44.6426 20.9193C42.3375 20.9193 40.0427 20.668 37.7306 20.668C35.0254 20.668 32.3045 20.913 29.6736 21.5896C28.4858 21.895 26.3915 22.3509 25.5124 23.4328C25.0918 23.9505 24.507 24.4661 24.0322 24.9408C23.4421 25.5309 22.9251 26.1576 22.3985 26.7631C21.4522 27.8513 20.0967 28.8795 19.501 30.1702C18.2066 32.9748 18.3387 36.3226 17.4973 39.2675" stroke="#7360F2" stroke-width="3.88636" stroke-linecap="round"/>
<path d="M34.2118 33.4864C32.6531 34.7949 31.0788 36.0349 29.6876 37.5079C29.2877 37.9314 29.0332 38.5058 28.9335 39.0788C28.6509 40.7039 27.6044 42.4826 26.2874 43.4704C25.3902 44.1433 24.0401 45.5599 23.3481 43.9871C22.8742 42.9101 23.1959 41.8517 23.5924 40.8383C23.8955 40.0638 24.158 39.2986 24.158 38.4575C24.158 37.1884 24.645 36.2039 25.3519 35.183C25.8182 34.5093 26.2691 33.844 26.7343 33.1722C26.9406 32.8742 27.1764 32.6182 27.4255 32.3553C27.6626 32.105 28.0427 31.8418 28.2284 31.5943C28.5432 31.1746 29.2029 31.0096 29.7155 30.8473C30.5177 30.5932 31.2797 30.1814 32.0893 29.9606C32.5738 29.8284 33.0771 29.7164 33.5555 29.5626C34.1634 29.3672 34.4527 29.1344 33.4996 29.2903C32.5194 29.4507 31.4277 30.0649 30.3927 29.8349C29.414 29.6174 31.521 28.7042 31.6564 28.641C32.2729 28.3533 32.9617 28.227 33.6393 28.2081C34.5433 28.183 35.4311 27.9568 36.3343 27.9568C37.8447 27.9568 39.338 27.9056 40.8445 27.8241C42.5936 27.7296 44.4071 27.5629 46.1507 27.8311C48.1799 28.1433 50.3074 28.234 52.2319 29.018C53.2731 29.4422 54.2237 29.8694 54.8221 30.9031C55.1684 31.5012 55.5192 32.148 55.8903 32.7254C56.1953 33.1998 56.2337 33.6313 56.4559 34.1148C56.9236 35.1328 56.9859 36.3606 57.3914 37.4102C57.7848 38.4284 58.341 39.6864 58.341 40.7754C58.341 43.25 58.3551 46.1279 57.0144 48.2879C56.9163 48.4459 56.8727 48.6392 56.8329 48.8185C56.7715 49.0949 56.5686 49.1687 56.4628 49.398C56.2525 49.8537 55.9647 50.2485 55.7018 50.6756C55.228 51.4457 55.245 52.5089 54.85 53.3427C54.1394 54.8429 52.5541 55.1219 51.0519 55.5071C49.4249 55.9242 47.6481 56.171 45.9692 56.3309C44.8323 56.4392 43.6886 56.8022 42.562 56.8545C41.784 56.8907 41.125 56.9367 40.3697 57.1408C39.2843 57.4342 38.2729 57.3688 37.2279 57.839C36.7049 58.0743 36.1459 58.4579 35.7478 58.9002C35.4094 59.2762 35.2905 59.9606 34.9379 60.3524C34.6749 60.6446 34.8794 61.3033 34.4631 61.5114" stroke="#7360F2" stroke-width="12.9545" stroke-linecap="round"/>
<path d="M31.5727 67.9211C31.5202 67.5468 31.447 67.1692 31.447 66.79" stroke="#7360F2" stroke-width="3.88636" stroke-linecap="round"/>
<path d="M46.7791 36.502C46.4941 37.3886 46.2454 38.341 46.053 39.2388C45.8182 40.3349 44.6075 41.0831 43.7909 41.7802C42.1767 43.1582 40.2772 44.3593 38.2334 44.922C35.9648 45.5467 33.7213 46.287 31.461 46.9328C30.4179 47.2308 29.3373 47.5204 28.2773 47.7148C27.8863 47.7864 26.4745 48.14 26.2386 48.5107C25.7628 49.2583 26.6489 50.5209 26.9228 51.2057C27.1089 51.6707 27.8352 52.4279 28.3751 52.3297C28.964 52.2227 29.5159 52.2111 30.1205 52.2111C30.5172 52.2111 30.8483 52.0911 31.2236 51.9597C32.5024 51.5121 33.8096 51.0631 35.1335 50.7728C37.3935 50.2772 39.6972 49.8501 41.9756 49.4463C43.4005 49.1937 44.8602 49.0888 46.2695 48.7551C47.7815 48.3969 49.3348 48.336 50.8007 47.8125" stroke="#7360F2" stroke-width="18.1364" stroke-linecap="round"/>
<path d="M64.3142 21.2588C62.7726 19.8468 56.5285 15.3075 42.6231 15.2479C42.6231 15.2479 26.2149 14.2659 18.222 21.6008C13.776 26.0468 12.2188 32.5578 12.04 40.6336C11.8613 48.7095 11.6618 63.8456 26.2512 67.9599H26.2641L26.2512 74.2274C26.2512 74.2274 26.1553 76.7664 27.8239 77.2769C29.8396 77.909 31.0314 75.9762 32.9616 73.8983C34.0187 72.7557 35.4748 71.082 36.5811 69.8047C42.9211 70.3919 49.3147 69.904 55.4922 68.3615L55.1035 68.4444C57.1193 67.7889 68.5245 66.3303 70.3692 51.1968C72.2968 35.5736 69.452 25.7178 64.3142 21.2588ZM66.0035 50.0568C64.4308 62.6874 55.1916 63.4906 53.492 64.0347C49.7818 64.9778 45.5224 65.5167 41.136 65.5167C39.8768 65.5167 38.628 65.4727 37.3921 65.3846L37.5579 65.3949C37.5579 65.3949 31.2413 73.0096 29.2748 74.9891C28.6322 75.6316 27.9249 75.5798 27.9379 74.2973C27.9379 73.4604 27.9871 63.887 27.9871 63.887C15.6362 60.4619 16.3513 47.5695 16.4964 40.8357C16.6415 34.1019 17.9059 28.5678 21.6705 24.8524C28.4379 18.7197 42.3692 19.6291 42.3692 19.6291C54.1397 19.6784 59.775 23.2253 61.086 24.4145C65.4231 28.1325 67.6332 37.0245 66.0035 50.0542V50.0568ZM49.1341 40.2424V40.2787C49.1286 40.4804 49.0459 40.6724 48.903 40.815C48.7601 40.9575 48.568 41.0398 48.3662 41.0448C48.1644 41.0497 47.9684 40.9771 47.8187 40.8418C47.6689 40.7064 47.5768 40.5188 47.5614 40.3175V40.3149C47.6142 39.774 47.5489 39.2281 47.3702 38.7148C47.1914 38.2015 46.9034 37.7331 46.526 37.342C46.1487 36.9508 45.6909 36.6462 45.1844 36.4491C44.6779 36.2521 44.1346 36.1673 43.5921 36.2006H43.6025C43.4012 36.185 43.2135 36.0926 43.0783 35.9426C42.9431 35.7926 42.8706 35.5964 42.876 35.3945C42.8813 35.1927 42.964 35.0005 43.1069 34.8579C43.2498 34.7152 43.4421 34.6329 43.644 34.6279H43.688H43.6854L43.8642 34.6253C44.5875 34.6251 45.3032 34.7735 45.9668 35.0615C46.6303 35.3494 47.2276 35.7707 47.7216 36.2991C48.2155 36.8275 48.5955 37.4519 48.8381 38.1333C49.0806 38.8148 49.1805 39.5389 49.1315 40.2605V40.245L49.1341 40.2424ZM51.598 41.6182C51.7198 36.4674 48.5019 32.436 42.3925 31.9852C42.2865 31.9819 42.1823 31.9572 42.0861 31.9126C41.9898 31.868 41.9036 31.8044 41.8325 31.7257C41.7615 31.647 41.707 31.5547 41.6725 31.4545C41.6379 31.3542 41.624 31.248 41.6315 31.1422C41.639 31.0364 41.6678 30.9332 41.7162 30.8388C41.7645 30.7444 41.8314 30.6608 41.9129 30.5929C41.9944 30.525 42.0887 30.4742 42.1903 30.4437C42.2919 30.4131 42.3985 30.4034 42.504 30.4151H42.5014H42.5454C43.9953 30.415 45.4299 30.7114 46.7611 31.2859C48.0923 31.8604 49.292 32.7009 50.2865 33.7559C51.2811 34.8109 52.0495 36.058 52.5446 37.4207C53.0397 38.7835 53.251 40.233 53.1655 41.6804L53.1681 41.6519C53.1543 41.8527 53.064 42.0405 52.916 42.1769C52.7679 42.3133 52.5733 42.3878 52.372 42.3851C52.1707 42.3825 51.9781 42.3029 51.8337 42.1626C51.6893 42.0224 51.604 41.8322 51.5955 41.6311V41.6104L51.598 41.6182ZM57.298 43.2479V43.253C57.2876 43.4539 57.2006 43.6431 57.0551 43.7819C56.9096 43.9207 56.7165 43.9986 56.5154 43.9996C56.3143 44.0006 56.1204 43.9246 55.9735 43.7872C55.8266 43.6499 55.7378 43.4615 55.7254 43.2608C55.6632 33.3584 49.059 27.9667 41.0556 27.9097C40.9525 27.9097 40.8505 27.8894 40.7552 27.8499C40.66 27.8105 40.5734 27.7526 40.5005 27.6797C40.4276 27.6068 40.3698 27.5203 40.3303 27.4251C40.2909 27.3298 40.2706 27.2277 40.2706 27.1246C40.2706 27.0215 40.2909 26.9195 40.3303 26.8242C40.3698 26.729 40.4276 26.6424 40.5005 26.5695C40.5734 26.4966 40.66 26.4388 40.7552 26.3993C40.8505 26.3599 40.9525 26.3396 41.0556 26.3396C50.0176 26.4018 57.2203 32.5863 57.2929 43.2453L57.298 43.2479ZM55.9378 55.1609V55.1842C54.6268 57.4927 52.1732 60.0421 49.6471 59.2286L49.6238 59.1923C45.1199 57.5349 40.8982 55.1938 37.1071 52.2513L37.2133 52.329C35.3268 50.8311 33.6155 49.125 32.1118 47.243L32.0626 47.1783C30.7011 45.4644 29.486 43.6392 28.4301 41.7218L28.3265 41.5171C27.0773 39.4577 26.0416 37.276 25.2355 35.0062L25.1578 34.7523C24.3443 32.2261 26.8808 29.7725 29.2022 28.4615H29.2255C29.6823 28.1692 30.2307 28.0554 30.766 28.1419C31.3013 28.2284 31.786 28.5092 32.1274 28.9305L32.13 28.9357C32.13 28.9357 33.6353 30.7312 34.2804 31.6199C34.8867 32.4464 35.7028 33.7703 36.1251 34.5087C36.4431 35.0133 36.5725 35.614 36.4905 36.2047C36.4085 36.7954 36.1203 37.3382 35.6769 37.737L35.6743 37.7396L34.2182 38.9055C33.9912 39.1246 33.8158 39.3915 33.7046 39.6868C33.5935 39.9821 33.5494 40.2985 33.5757 40.6129V40.6051C34.2967 43.0077 35.5979 45.196 37.3647 46.9767C39.1314 48.7574 41.3093 50.076 43.7061 50.8159L43.815 50.8444C44.1279 50.8691 44.4424 50.8245 44.7361 50.7139C45.0299 50.6033 45.2957 50.4294 45.5146 50.2044L46.6805 48.7484C47.081 48.303 47.6265 48.014 48.2199 47.9329C48.8134 47.8518 49.4164 47.9837 49.9217 48.3053L49.9114 48.3001C52.0178 49.4997 53.8392 50.8185 55.5 52.3134L55.4715 52.2875C55.8927 52.6235 56.1731 53.1048 56.2575 53.637C56.3419 54.1692 56.2242 54.7137 55.9275 55.1634L55.9326 55.1557L55.9378 55.1609Z" fill="white"/>
</svg>

<svg width="82" height="88" fill="none" xmlns="http://www.w3.org/2000/svg"><path fill-rule="evenodd" clip-rule="evenodd" d="M48.519 2.616c-9.84-.978-28.268-3.876-36.466 1.49C3.782 9.519 2.235 19.925.64 29.476c-1.432 8.576 2.622 16.573 4.853 24.988 2.424 9.141-2.606 20.925 4.43 27.449 7.342 6.807 25.401 6.403 35.455 4.987 9.485-1.336 12.542-8.09 20.405-13.404 8.089-5.467 10.635 1.48 13.561-7.648 2.93-9.135 3.992-25.899 0-34.648-3.485-7.64-5.117-16.31-11.765-21.625-6.873-5.495-10.198-6.078-19.06-6.959z" fill="#C5CBF1"/><path d="M16.618 40.524V45.3c0 .655.335 1.326.502 1.955.375 1.406.31 2.963.53 4.398.158 1.024.49 2.07.601 3.072.033.294.316.695.433.978.202.49.388 1.066.642 1.529.294.533.584 1.357 1.118 1.696.475.303.977.738 1.382 1.131.506.492 1.266 1.467 1.955 1.697 1.057.352 2.178.4 3.212.887.599.282 1.672.43 2.066.977.804 1.117.42 2.361.377 3.645-.036 1.096 0 2.198 0 3.295 0 .838.131 1.802-.007 2.632-.018.109-.37.932-.37.608 0-.73 1.197-1.28 1.64-1.725.248-.248.61-.4.804-.705.203-.32.183-.69.447-1.033.386-.504.767-.82 1.186-1.278.384-.419.966-.911 1.425-1.264.255-.196 1.106-.956 1.159-1.257.004-.024.525-.6.572-.628.273-.155.643-.53.88-.754.447-.423 1.3-.293 1.892-.447.95-.246 1.861-.108 2.82-.188 2.212-.184 4.373-.622 6.592-.622 1.443 0 2.746-.402 4.154-.6 1.017-.143 2.16-.47 3.114-.852a33.25 33.25 0 003.156-1.431c.89-.469 1.373-1.267 1.773-2.171.732-1.66 1.276-3.43 2.073-5.055.07-.142.87-1.925 1.027-1.02.206 1.191.047 2.112-.335 3.205-.12.34-.24.734-.322 1.082-.096.41-.358.182-.558.461-.123.17-.314.312-.419.475-.536.834.913-1.763 1.306-2.674.459-1.065.98-2.09 1.305-3.205.263-.898.433-1.818.747-2.702.339-.953.367-1.913.384-2.911.02-1.144.243-2.337.384-3.47.275-2.2.078-4.404-.481-6.528-.19-.717-.814-1.459-.901-2.2-.088-.744-.433-1.532-.705-2.227-.914-2.334-1.253-4.788-3.198-6.625-1.64-1.55-4.06-1.658-6.088-2.395-.413-.15-.721-.445-1.131-.629-.87-.389-1.786-.526-2.71-.69-1.21-.217-2.471-.164-3.686-.413-.852-.174-1.853-.405-2.722-.405-2.306 0-4.6-.251-6.912-.251-2.706 0-5.427.245-8.057.922-1.188.305-3.282.76-4.162 1.843-.42.518-1.005 1.033-1.48 1.508-.59.59-1.107 1.217-1.634 1.822-.946 1.088-2.301 2.116-2.897 3.407-1.294 2.805-1.162 6.153-2.004 9.097" stroke="#7360F2" stroke-width="3.886" stroke-linecap="round"/><path d="M34.212 33.486c-1.559 1.309-3.133 2.549-4.524 4.022-.4.423-.655.998-.755 1.57-.282 1.626-1.329 3.405-2.646 4.392-.897.673-2.247 2.09-2.939.517-.474-1.077-.152-2.135.244-3.149.303-.774.566-1.54.566-2.38 0-1.27.487-2.254 1.194-3.275.466-.674.917-1.339 1.382-2.01a6.92 6.92 0 01.691-.818c.238-.25.618-.513.803-.76.315-.42.975-.585 1.487-.748.803-.254 1.565-.666 2.374-.886.485-.133.988-.245 1.467-.398.607-.196.897-.429-.056-.273-.98.16-2.072.775-3.107.545-.979-.218 1.128-1.13 1.263-1.194.617-.288 1.306-.414 1.983-.433.904-.025 1.792-.251 2.695-.251 1.51 0 3.004-.051 4.51-.133 1.75-.094 3.563-.261 5.307.007 2.029.312 4.156.403 6.08 1.187 1.042.424 1.993.851 2.591 1.885.346.598.697 1.245 1.068 1.822.305.475.344.906.566 1.39.468 1.018.53 2.246.935 3.295.394 1.018.95 2.276.95 3.365 0 2.475.014 5.353-1.327 7.513-.098.158-.141.351-.181.53-.061.277-.264.35-.37.58-.21.456-.498.85-.761 1.278-.474.77-.457 1.833-.852 2.667-.71 1.5-2.296 1.779-3.798 2.164-1.627.417-3.404.664-5.083.824-1.137.108-2.28.471-3.407.523-.778.037-1.437.083-2.192.287-1.086.293-2.097.228-3.142.698a4.632 4.632 0 00-1.48 1.061c-.339.376-.457 1.06-.81 1.452-.263.293-.059.951-.475 1.16" stroke="#7360F2" stroke-width="12.954" stroke-linecap="round"/><path d="M31.573 67.921c-.053-.374-.126-.752-.126-1.131" stroke="#7360F2" stroke-width="3.886" stroke-linecap="round"/><path d="M46.78 36.502a28.947 28.947 0 00-.727 2.737c-.235 1.096-1.445 1.844-2.262 2.541-1.614 1.378-3.514 2.58-5.558 3.142-2.268.625-4.512 1.365-6.772 2.01-1.043.299-2.124.588-3.184.783-.39.071-1.803.425-2.038.796-.476.747.41 2.01.684 2.695.186.465.912 1.222 1.452 1.124.589-.107 1.14-.119 1.745-.119.397 0 .728-.12 1.104-.251 1.278-.448 2.586-.897 3.91-1.187 2.26-.496 4.563-.923 6.842-1.327 1.425-.252 2.884-.357 4.294-.69 1.511-.36 3.065-.42 4.53-.944" stroke="#7360F2" stroke-width="18.136" stroke-linecap="round"/><path d="M64.314 21.259c-1.541-1.412-7.785-5.952-21.69-6.011 0 0-16.41-.982-24.402 6.353-4.446 4.446-6.003 10.957-6.182 19.033-.179 8.075-.378 23.212 14.211 27.326h.013l-.013 6.267s-.096 2.54 1.573 3.05c2.016.632 3.207-1.3 5.138-3.379 1.057-1.142 2.513-2.816 3.62-4.093 6.34.587 12.733.099 18.91-1.444l-.389.083c2.016-.655 13.422-2.114 15.266-17.247 1.928-15.623-.917-25.48-6.055-29.938zm1.69 28.798C64.43 62.687 55.192 63.49 53.492 64.035c-3.71.943-7.97 1.482-12.356 1.482-1.26 0-2.508-.044-3.744-.132l.166.01s-6.317 7.615-8.283 9.594c-.643.643-1.35.59-1.337-.692 0-.837.05-10.41.05-10.41-12.352-3.425-11.637-16.318-11.492-23.051.146-6.734 1.41-12.268 5.175-15.984 6.767-6.132 20.698-5.223 20.698-5.223 11.77.05 17.406 3.596 18.717 4.785 4.337 3.718 6.547 12.61 4.918 25.64v.003zm-16.87-9.815v.037a.788.788 0 01-1.573.038v-.002a3.757 3.757 0 00-3.969-4.114h.01a.788.788 0 01.042-1.573h.044-.003l.18-.003a5.278 5.278 0 015.267 5.636v-.016l.002-.003zm2.464 1.376c.122-5.15-3.096-9.182-9.206-9.633a.787.787 0 11.112-1.57h-.003.044a10.637 10.637 0 0110.62 11.265l.003-.028a.787.787 0 01-1.572-.02v-.022l.002.008zm5.7 1.63v.005a.787.787 0 01-1.573.008c-.062-9.903-6.666-15.294-14.67-15.351a.784.784 0 110-1.57c8.963.062 16.165 6.246 16.238 16.905l.005.003zm-1.36 11.913v.023c-1.311 2.309-3.765 4.858-6.29 4.045l-.024-.037a46.74 46.74 0 01-12.517-6.94l.106.077a32 32 0 01-5.101-5.086l-.05-.065a39.079 39.079 0 01-3.632-5.456l-.104-.205a35.392 35.392 0 01-3.09-6.51l-.078-.255c-.814-2.526 1.723-4.98 4.044-6.29h.023a2.205 2.205 0 012.902.468l.003.006s1.505 1.795 2.15 2.684c.607.826 1.423 2.15 1.845 2.889a2.529 2.529 0 01-.448 3.228l-.003.003-1.456 1.166a2.128 2.128 0 00-.642 1.707v-.008a15.283 15.283 0 0010.13 10.21l.109.03a2.137 2.137 0 001.7-.64l1.166-1.457a2.531 2.531 0 013.24-.443l-.01-.005a31.654 31.654 0 015.589 4.013l-.029-.026a2.159 2.159 0 01.457 2.876l.005-.007.005.005z" fill="#fff"/></svg>
